X:448
T:Bay of Fundy
O:england
C:Bill Guest
L:1/8
M:2/2
K:D
Q:420
fg |\
"D"a2 ab afdf |\
afbf a2 ef |\
"C"gfga ge=ce |\
geae g2 fg |\
"D"a2 ab afdf |\
afbf a2 ef |\
"A"gfeg "D"fedf |\
"A"ecAc "D"d2 :: cB |\
"D"Adfd edfd |\
"G"Bdgd Bdgd |\
"D"Adfd Adfd |\
"A"cAcd efec |\
"D"Adfd edfd |\
"G"Bdgd Bdgd |\
"D"fedf "A"edce |\
"D"d2 f2 d2 :|


